packages/sources/icons/src/vitamix/store-fill.svg

<svg width="16" height="16" viewBox="0 0 16 16" fill="none" xmlns="http://www.w3.org/2000/svg">
<path fill-rule="evenodd" clip-rule="evenodd" d="M14 2H2V3.33333H14V2ZM14 13.3333V8.66667H14.6667V7.33333L14 4H2L1.33333 7.33333V8.66667H2V13.3333C2 13.7015 2.29848 14 2.66667 14H13.3333C13.7015 14 14 13.7015 14 13.3333ZM3.33333 12.6667V8.66667H12.6667V12.6667H3.33333ZM4 9.33333H9.33333V11.3333H4V9.33333Z" fill="#001018"/>
</svg>

<svg width="16" height="16" fill="none" xmlns="http://www.w3.org/2000/svg"><path fill-rule="evenodd" clip-rule="evenodd" d="M14 2H2v1.333h12V2zm0 11.333V8.667h.667V7.333L14 4H2l-.667 3.333v1.334H2v4.666c0 .368.298.667.667.667h10.666a.667.667 0 0 0 .667-.667zm-10.667-.666v-4h9.334v4H3.333zM4 9.333h5.333v2H4v-2z" fill="#001018"/></svg>
